X: 1686
T: Sebep Ne Bakmıyor Yârim Yüzüme
C: Markar Ağa
O: Turkey
F: http://compmusic.upf.edu/node/140
N: beyati--sarki--aksak--sebep_ne--markar_aga
N: makam= beyati
N: form= sarki
N: usul= aksak = 9/8
M: 9/8
L: 1/16
K: C _2/4B   
Q: 1/4=120
%%MIDI tuningsystem comma53
f4 d2e2 .f4 aggf fe | ed dcd2 e2dc BcB2 c4  | 
w:  *  Se bep  ne  bak  |  *  *  *  *  mı yor  yâ *  *  *  rim   | 
c2d4ef edcB agfe de | c2 d2de dcd3/2c/ Bcd3feg  | 
w:  yü *  *  *  *  *  *  *  *  *  *  *  zü  |  me  *  *  *  *  *  câ *  *  *  nım   SAZ  | 
f4 d2e2 .f4 aggf fe | ed dcd2 e2dc BcB2 c4  | 
w:  *  Se bep  ne  bak  |  *  *  *  *  mı yor  yâ *  *  *  rim   | 
c2d4ef edcB agfe de | c2 d2de dcd3/2c/ Bcd3cBc  | 
w:  yü *  *  *  *  *  *  *  *  *  *  *  zü  |  me  *  *  *  *  *  câ *  *  *  nım   *  SAZ  | 
d4 cd2e f3/2e/da aggf fe | ed2ccd2fed cBcB/A/ {B}A4  | 
w:  *  Gö rün *  mü *  *  *  yor   |  *  *  *  ci han  *  şim *  *  *  di   | 
GABc defe dc2B fed2 cB | (3cBA .A4 ded3/2c/ Bcd3cBc  | 
w:  gö *  *  *  *  *  *  *  *  *  *  *  *  *  zü  |  me   *  *  *  SAZ  | 
d4 cd2e f3/2e/da aggf fe | ed2ccd2fed cBcB/A/ {B}A4  | 
w:  *  Gö rün *  mü *  *  *  yor   |  *  *  *  ci han  *  şim *  *  *  di   | 
GABc defe dc2B fed2 cB | (3cBA A2z2 ^3/4fga3/2g/ fga3gfg  | 
w:  gö *  *  *  *  *  *  *  *  *  *  *  *  *  zü  |  me   *  *  *  SAZ  | 
a4 dd2a a3/2g/^3/4fg abc'b a2 | ag gffe eddc dfed cBA2  | 
w:  *  Bu gün *  ler *  *  *  de   |  be *  *  *  nim  *  *  *  bak *  *  *  ma   | 
c2d4ef edcB agfe de | c2 d4 ^3/4fga3/2g/ fga3gfg  | 
w:  sö *  *  *  *  *  *  *  *  *  *  *  zü  |  me   *  SAZ  | 
a4 dd2a a3/2g/^3/4fg abc'b a2 | ag gffe eddc dfed cBA2  | 
w:  *  Bu gün *  ler *  *  *  de   |  be *  *  *  nim  *  *  *  bak *  *  *  ma   | 
c2d4ef edcB agfe de | c2 d2de dcd3/2c/ Bcd3cBc  | 
w:  sö *  *  *  *  *  *  *  *  *  *  *  zü  |  me  *  *  *  *  *  câ *  *  *  nım   SAZ  | 
d4 cd2e f3/2e/da aggf fe | ed2ccd2fed cBcB/A/ {B}A4  | 
w:  *  Gö rün *  mü *  *  *  yor   |  *  *  *  ci han  *  şim *  *  *  di   | 
GABc defe dc2B fed2 cB | (3cBA .A4 ded3/2c/ Bcd3cBc  | 
w:  gö *  *  *  *  *  *  *  *  *  *  *  *  *  zü  |  me   *  *  *  SAZ  | 
d4 cd2e f3/2e/da aggf fe | ed2ccd2fed cBcB/A/ {B}A4  | 
w:  *  Gö rün *  mü *  *  *  yor   |  *  *  *  ci han  *  şim *  *  *  di   | 
GABc defe dc2B fed2 cB | c2 d4 dccB BAA6  | 
w:  gö *  *  *  *  *  *  *  *  *  *  *  *  *  zü  |  me   KARAR SAZ  | 
|


